;START_OF_HEADER
;HEADER_VERSION:0.1
;FLAVOR:Griffin
;GENERATOR.NAME:Cura_SteamEngine
;GENERATOR.VERSION:4.7.1
;GENERATOR.BUILD_DATE:2020-09-02
;TARGET_MACHINE.NAME:Ultimaker 3 Extended
;EXTRUDER_TRAIN.0.INITIAL_TEMPERATURE:260
;EXTRUDER_TRAIN.0.MATERIAL.VOLUME_USED:87845
;EXTRUDER_TRAIN.0.MATERIAL.GUID:60636bb4-518f-42e7-8237-fe77b194ebe0
;EXTRUDER_TRAIN.0.NOZZLE.DIAMETER:0.8
;EXTRUDER_TRAIN.0.NOZZLE.NAME:AA 0.8
;BUILD_PLATE.TYPE:glass
;BUILD_PLATE.INITIAL_TEMPERATURE:90
;PRINT.TIME:19674
;PRINT.GROUPS:1
;PRINT.SIZE.MIN.X:9
;PRINT.SIZE.MIN.Y:6
;PRINT.SIZE.MIN.Z:0.27
;PRINT.SIZE.MAX.X:196.555
;PRINT.SIZE.MAX.Y:159.055
;PRINT.SIZE.MAX.Z:31.07
;END_OF_HEADER
;Generated with Cura_SteamEngine 4.7.1
T0
M82 ;absolute extrusion mode

G92 E0
M109 S260
G0 F15000 X9 Y6 Z2
G280
G1 F1500 E-6.5
;LAYER_COUNT:155
;LAYER:0
M107
M204 S625
M205 X30 Y30
G1 F600 Z2.27
G0 F6000 X38.278 Y56.349 Z2.27
M204 S500
M205 X25 Y25
;TYPE:SKIRT
G1 F600 Z0.27
G1 F900 E0
G1 F1200 X38.757 Y56.141 E0.01857
G1 X39.263 Y56.009 E0.03716
G1 X39.787 Y55.955 E0.05588
G1 X40.267 Y55.944 E0.07295
G1 X151.554 Y55.944 E4.02942
G1 X192.478 Y55.945 E5.48435
G1 X193.175 Y55.955 E5.50913
G1 X193.696 Y56.003 E5.52774
G1 X194.203 Y56.129 E5.54631
G1 X194.685 Y56.331 E5.56489
G1 X195.131 Y56.604 E5.58348
G1 X195.529 Y56.942 E5.60204
G1 X195.872 Y57.337 E5.62064
G1 X196.151 Y57.779 E5.63922
G1 X196.359 Y58.258 E5.65779
G1 X196.491 Y58.764 E5.67638
G1 X196.545 Y59.277 E5.69472
G1 X196.555 Y59.69 E5.70941
G1 X196.555 Y67.977 E6.00403
G1 X196.545 Y68.68 E6.02902
G1 X196.497 Y69.2 E6.04759
G1 X196.371 Y69.707 E6.06616
G1 X196.169 Y70.19 E6.08477
G1 X195.875 Y70.688 E6.10533
G1 X194.478 Y73.035 E6.20244
G1 X193.137 Y75.436 E6.30021
G1 X191.89 Y77.827 E6.39608
G1 X190.684 Y80.309 E6.49418
G1 X189.57 Y82.775 E6.59039
G1 X188.519 Y85.286 E6.68716
G1 X187.527 Y87.861 E6.78527
G1 X186.622 Y90.427 E6.882
G1 X185.777 Y93.053 E6.98007
G1 X185.023 Y95.648 E7.07615
G1 X184.334 Y98.299 E7.17353
G1 X183.724 Y100.943 E7.26999
G1 X183.186 Y103.628 E7.36735
G1 X182.72 Y106.346 E7.46539
G1 X182.336 Y109.047 E7.56238
G1 X182.03 Y111.742 E7.65881
G1 X181.797 Y114.476 E7.75636
G1 X181.643 Y117.212 E7.85378
G1 X181.556 Y121.32 E7.99986
G1 X181.555 Y144.956 E8.84017
G1 X181.545 Y145.674 E8.8657
G1 X181.497 Y146.194 E8.88426
G1 X181.372 Y146.701 E8.90283
G1 X181.17 Y147.184 E8.92144
G1 X180.897 Y147.629 E8.94
G1 X180.559 Y148.028 E8.95859
G1 X180.165 Y148.371 E8.97717
G1 X179.722 Y148.65 E8.99578
G1 X179.243 Y148.858 E9.01434
G1 X178.611 Y149.011 E9.03746
G1 X177.405 Y149.184 E9.08078
G1 X177.318 Y149.195 E9.08389
G1 X174.625 Y149.616 E9.1808
G1 X171.923 Y150.117 E9.2785
G1 X169.244 Y150.691 E9.3759
G1 X166.652 Y151.324 E9.47076
G1 X163.961 Y152.063 E9.56997
G1 X161.354 Y152.858 E9.66687
G1 X158.774 Y153.727 E9.76366
G1 X156.226 Y154.665 E9.86019
G1 X153.659 Y155.694 E9.95851
G1 X151.185 Y156.768 E10.05439
G1 X148.686 Y157.938 E10.15249
G1 X148.409 Y158.077 E10.16351
G1 X147.13 Y158.7 E10.21409
G1 X146.644 Y158.892 E10.23267
G1 X146.134 Y159.008 E10.25126
G1 X145.396 Y159.053 E10.27755
G1 X145.295 Y159.055 E10.28114
G1 X88.023 Y159.055 E12.31727
G1 X87.32 Y159.045 E12.34227
G1 X86.8 Y158.997 E12.36083
G1 X86.293 Y158.871 E12.37941
G1 X85.83 Y158.679 E12.39723
G1 X85.624 Y158.575 E12.40543
G1 X83.117 Y157.357 E12.50452
G1 X80.625 Y156.232 E12.60173
G1 X78.12 Y155.185 E12.69825
G1 X75.584 Y154.207 E12.79488
G1 X73.01 Y153.299 E12.89192
G1 X70.372 Y152.451 E12.99043
G1 X67.777 Y151.697 E13.0865
G1 X65.119 Y151.006 E13.18414
G1 X62.457 Y150.393 E13.28126
G1 X59.805 Y149.861 E13.37742
G1 X57.102 Y149.398 E13.47492
G1 X54.391 Y149.011 E13.57228
G1 X53.881 Y148.897 E13.59086
G1 X53.394 Y148.708 E13.60943
G1 X52.941 Y148.446 E13.62803
G1 X52.534 Y148.118 E13.64662
G1 X52.182 Y147.732 E13.66519
G1 X51.892 Y147.297 E13.68377
G1 X51.672 Y146.823 E13.70235
G1 X51.527 Y146.321 E13.72093
G1 X51.457 Y145.729 E13.74212
G1 X51.445 Y145.296 E13.75752
G1 X51.445 Y119.17 E14.68635
G1 X51.406 Y116.382 E14.78548
G1 X51.289 Y113.644 E14.88291
G1 X51.098 Y110.939 E14.97932
G1 X50.828 Y108.218 E15.07653
G1 X50.485 Y105.537 E15.17262
G1 X50.049 Y102.764 E15.27242
G1 X49.558 Y100.125 E15.36785
G1 X48.987 Y97.472 E15.46433
G1 X48.332 Y94.798 E15.56221
G1 X47.611 Y92.177 E15.65885
G1 X46.804 Y89.542 E15.75682
G1 X45.944 Y86.992 E15.8525
G1 X44.994 Y84.416 E15.95011
G1 X43.967 Y81.86 E16.04804
G1 X42.885 Y79.374 E16.14443
G1 X41.719 Y76.886 E16.24212
G1 X40.48 Y74.425 E16.34007
G1 X39.203 Y72.062 E16.43556
G1 X37.827 Y69.677 E16.53346
G1 X37.576 Y69.27 E16.55046
G1 X36.937 Y68.198 E16.59482
G1 X36.705 Y67.73 E16.6134
G1 X36.546 Y67.232 E16.63198
G1 X36.456 Y66.546 E16.65658
G1 X36.445 Y66.104 E16.6723
G1 X36.444 Y60.02 E16.8886
G1 X36.454 Y59.325 E16.91331
G1 X36.502 Y58.804 E16.93191
G1 X36.628 Y58.297 E16.95048
G1 X36.83 Y57.815 E16.96906
G1 X37.103 Y57.369 E16.98765
G1 X37.441 Y56.971 E17.00622
G1 X37.836 Y56.628 E17.02481
G1 X38.278 Y56.349 E17.0434
M204 S625
M205 X30 Y30
G1 F1500 E10.5434
;MESH:SideHolder.stl
G0 F6000 X41.139 Y65.176
G0 X46.586 Y65.152
G0 X48.131 Y65.64
G0 X53.212 Y70.779
G0 X54.244 Y72.06
G0 X55.071 Y73.481
G0 X77.682 Y121.162
G0 X78.141 Y122.749
G0 X78.546 Y138.465
M204 S500
M205 X25 Y25
;TYPE:WALL-INNER
G1 F900 E17.0434
G1 F1200 X78.965 Y138.465 E17.05829
G1 X78.965 Y138.046 E17.06793
G1 X78.965 Y122.86 E17.60782
G1 X78.829 Y121.839 E17.64444
G1 X78.382 Y120.758 E17.68603
G1 X77.669 Y119.831 E17.7276
G1 X76.742 Y119.118 E17.76918
G1 X75.659 Y118.671 E17.81083
G1 X74.637 Y118.536 E17.84748
G1 X68.362 Y118.535 E18.07057
G1 X67.339 Y118.671 E18.10726
G1 X66.258 Y119.118 E18.14885
G1 X65.331 Y119.831 E18.19043
G1 X64.618 Y120.758 E18.23201
G1 X64.171 Y121.841 E18.27366
G1 X64.036 Y122.863 E18.31031
G1 X64.036 Y138.464 E18.86495
G1 X78.546 Y138.465 E19.38081
M204 S625
M205 X30 Y30
G0 F6000 X78.125 Y137.625
M204 S500
M205 X25 Y25
G1 F1200 X78.125 Y137.206 E19.39571
G1 X78.125 Y122.916 E19.90375
G1 X78.011 Y122.059 E19.93448
G1 X77.648 Y121.182 E19.96823
G1 X77.07 Y120.43 E20.00195
G1 X76.318 Y119.852 E20.03567
G1 X75.44 Y119.489 E20.06944
G1 X74.582 Y119.376 E20.10021
G1 X68.417 Y119.375 E20.31939
G1 X67.559 Y119.489 E20.35016
G1 X66.682 Y119.852 E20.38391
G1 X65.93 Y120.43 E20.41762
G1 X65.352 Y121.182 E20.45134
G1 X64.989 Y122.06 E20.48512
G1 X64.876 Y122.918 E20.51589
G1 X64.876 Y137.624 E21.03872
G1 X77.706 Y137.625 E21.49485
G1 X78.125 Y137.625 E21.50448
M204 S625
M205 X30 Y30
G0 F6000 X77.285 Y136.785
M204 S500
M205 X25 Y25
;TYPE:WALL-OUTER
G1 F1200 X77.285 Y136.365 E21.51941
G1 X77.285 Y122.972 E21.99556
G1 X77.193 Y122.279 E22.02041
G1 X76.914 Y121.606 E22.04632
G1 X76.471 Y121.029 E22.07218
G1 X75.894 Y120.586 E22.09804
G1 X75.221 Y120.307 E22.12394
G1 X74.527 Y120.216 E22.14883
G1 X68.472 Y120.215 E22.36409
G1 X67.779 Y120.307 E22.38895
G1 X67.106 Y120.586 E22.41485
G1 X66.529 Y121.029 E22.44071
G1 X66.086 Y121.606 E22.46657
G1 X65.807 Y122.279 E22.49247
G1 X65.716 Y122.973 E22.51736
G1 X65.716 Y136.784 E23.00836
G1 X76.865 Y136.785 E23.40473
G1 X77.285 Y136.785 E23.41439
M204 S625
M205 X30 Y30
G0 F6000 X77.285 Y136.385
G0 X78.209 Y136.385
G0 X78.225 Y136.385
G0 X168.546 Y138.465
M204 S500
M205 X25 Y25
;TYPE:WALL-INNER
G1 F1200 X168.965 Y138.465 E23.42929
G1 X168.965 Y138.046 E23.43893
G1 X168.965 Y122.86 E23.97882
G1 X168.829 Y121.839 E24.01544
G1 X168.382 Y120.758 E24.05702
G1 X167.669 Y119.831 E24.0986
G1 X166.742 Y119.118 E24.14018
G1 X165.659 Y118.671 E24.18183
G1 X164.637 Y118.536 E24.21848
G1 X158.362 Y118.535 E24.44157
G1 X157.339 Y118.671 E24.47826
G1 X156.258 Y119.118 E24.51985
G1 X155.331 Y119.831 E24.56143
G1 X154.618 Y120.758 E24.603
G1 X154.171 Y121.841 E24.64466
G1 X154.036 Y122.863 E24.68131
G1 X154.036 Y138.464 E25.23595
G1 X168.546 Y138.465 E25.75181
M204 S625
M205 X30 Y30
G0 F6000 X168.125 Y137.625
M204 S500
M205 X25 Y25
G1 F1200 X168.125 Y137.206 E25.76671
G1 X168.125 Y122.916 E26.27475
G1 X168.011 Y122.059 E26.30548
G1 X167.648 Y121.182 E26.33923
G1 X167.07 Y120.43 E26.37295
G1 X166.318 Y119.852 E26.40667
G1 X165.44 Y119.489 E26.44044
G1 X164.582 Y119.376 E26.47121
G1 X158.417 Y119.375 E26.69039
G1 X157.559 Y119.489 E26.72116
G1 X156.682 Y119.852 E26.7549
G1 X155.93 Y120.43 E26.78862
G1 X155.352 Y121.182 E26.82234
G1 X154.989 Y122.06 E26.85612
G1 X154.876 Y122.918 E26.88689
G1 X154.876 Y137.624 E27.40971
G1 X167.706 Y137.625 E27.86585
G1 X168.125 Y137.625 E27.87548
M204 S625
M205 X30 Y30
G0 F6000 X167.285 Y136.785
M204 S500
M205 X25 Y25
;TYPE:WALL-OUTER
G1 F1200 X167.285 Y136.365 E27.89041
G1 X167.285 Y122.972 E28.36656
G1 X167.193 Y122.279 E28.39141
G1 X166.914 Y121.606 E28.41731
G1 X166.471 Y121.029 E28.44318
G1 X165.894 Y120.586 E28.46904
G1 X165.221 Y120.307 E28.49494
G1 X164.527 Y120.216 E28.51982
G1 X158.472 Y120.215 E28.73509
G1 X157.779 Y120.307 E28.75994
G1 X157.106 Y120.586 E28.78585
G1 X156.529 Y121.029 E28.81171
G1 X156.086 Y121.606 E28.83757
G1 X155.807 Y122.279 E28.86347
G1 X155.716 Y122.973 E28.88836
G1 X155.716 Y136.784 E29.37936
G1 X166.865 Y136.785 E29.77573
G1 X167.285 Y136.785 E29.78539
M204 S625
M205 X30 Y30
G0 F6000 X167.285 Y136.385
G0 X168.209 Y136.385
G0 X168.225 Y136.385
G0 X143.536 Y143.536
M204 S500
M205 X25 Y25
;TYPE:WALL-INNER
G1 F1200 X143.535 Y153.535 E30.14088
G1 X89.465 Y153.535 E32.06317
G1 X89.464 Y143.536 E32.41865
G1 X56.965 Y143.535 E33.57406
G1 X56.964 Y78.171 E35.89788
G1 X56.839 Y76.49 E35.9578
G1 X56.56 Y75.29 E36.0016
G1 X56.444 Y74.775 E36.02037
G1 X55.794 Y73.13 E36.08325
G1 X54.906 Y71.604 E36.14602
G1 X53.797 Y70.229 E36.20883
G1 X52.497 Y69.038 E36.27151
G1 X51.033 Y68.054 E36.33422
G1 X50.189 Y67.656 E36.36739
G1 X50.187 Y67.617 E36.36878
G1 X49.966 Y66.689 E36.4027
G1 X49.345 Y65.662 E36.44537
G1 X48.578 Y64.964 E36.48224
G1 X47.49 Y64.464 E36.5248
G1 X46.64 Y64.351 E36.55529
G1 X41.965 Y64.35 E36.7215
G1 X41.964 Y61.883 E36.8092
G1 X41.964 Y61.464 E36.8241
G1 X42.383 Y61.464 E36.83373
G1 X151.554 Y61.464 E40.71497
G1 X191.035 Y61.465 E42.1186
G1 X191.035 Y66.535 E42.29885
G1 X187.675 Y66.536 E42.4183
G1 X186.583 Y66.613 E42.45722
G1 X186.04 Y66.655 E42.47659
G1 X184.887 Y66.908 E42.51855
G1 X184.36 Y67.033 E42.53781
G1 X183.258 Y67.446 E42.57965
G1 X182.756 Y67.65 E42.59891
G1 X181.716 Y68.219 E42.64106
G1 X181.254 Y68.502 E42.66032
G1 X180.307 Y69.209 E42.70233
G1 X179.894 Y69.565 E42.72172
G1 X179.066 Y70.393 E42.76335
G1 X178.71 Y70.806 E42.78273
G1 X178.003 Y71.753 E42.82475
G1 X177.72 Y72.215 E42.84401
G1 X177.156 Y73.249 E42.88589
G1 X176.945 Y73.752 E42.90528
G1 X176.535 Y74.857 E42.94718
G1 X176.407 Y75.384 E42.96646
G1 X176.157 Y76.535 E43.00833
G1 X176.112 Y77.077 E43.02767
G1 X176.036 Y78.177 E43.06687
G1 X176.036 Y127.342 E44.81478
G1 X176.035 Y143.535 E45.39048
G1 X143.536 Y143.536 E46.54588
M204 S625
M205 X30 Y30
G0 F6000 X144.376 Y144.376
M204 S500
M205 X25 Y25
G1 F1200 X144.375 Y154.375 E46.90136
G1 X88.625 Y154.375 E48.88338
G1 X88.624 Y144.376 E49.23887
G1 X56.125 Y144.375 E50.39427
G1 X56.124 Y78.202 E52.74685
G1 X56.006 Y76.617 E52.80336
G1 X55.742 Y75.48 E52.84485
G1 X55.639 Y75.023 E52.86151
G1 X55.036 Y73.498 E52.91981
G1 X54.212 Y72.082 E52.97805
G1 X53.183 Y70.806 E53.03633
G1 X51.976 Y69.7 E53.09453
G1 X50.617 Y68.787 E53.15274
G1 X49.371 Y68.2 E53.20171
G1 X49.351 Y67.733 E53.21832
G1 X49.179 Y67.011 E53.24471
G1 X48.689 Y66.201 E53.27837
G1 X48.109 Y65.673 E53.30625
G1 X47.254 Y65.28 E53.33971
G1 X46.584 Y65.191 E53.36374
G1 X41.125 Y65.19 E53.55781
G1 X41.124 Y61.043 E53.70525
G1 X41.124 Y60.624 E53.72014
G1 X41.543 Y60.624 E53.72978
G1 X151.554 Y60.624 E57.64088
G1 X191.875 Y60.625 E59.07437
G1 X191.875 Y67.375 E59.31435
G1 X187.705 Y67.376 E59.4626
G1 X186.645 Y67.451 E59.50038
G1 X186.163 Y67.488 E59.51757
G1 X185.074 Y67.727 E59.55721
G1 X184.605 Y67.838 E59.57434
G1 X183.564 Y68.228 E59.61386
G1 X183.117 Y68.41 E59.63102
G1 X182.137 Y68.946 E59.67073
G1 X181.726 Y69.198 E59.68787
G1 X180.833 Y69.865 E59.7275
G1 X180.466 Y70.181 E59.74472
G1 X179.682 Y70.965 E59.78413
G1 X179.366 Y71.332 E59.80135
G1 X178.699 Y72.225 E59.84098
G1 X178.447 Y72.636 E59.85812
G1 X177.914 Y73.613 E59.89768
G1 X177.727 Y74.06 E59.91491
G1 X177.34 Y75.103 E59.95446
G1 X177.226 Y75.572 E59.97162
G1 X176.99 Y76.659 E60.01117
G1 X176.95 Y77.141 E60.02836
G1 X176.876 Y78.206 E60.06631
G1 X176.876 Y127.342 E61.8132
G1 X176.875 Y144.375 E62.41875
G1 X144.376 Y144.376 E63.57415
M204 S625
M205 X30 Y30
G0 F6000 X145.216 Y145.216
M204 S500
M205 X25 Y25
;TYPE:WALL-OUTER
G1 F1200 X145.215 Y155.215 E63.92964
G1 X87.785 Y155.215 E65.97139
G1 X87.784 Y145.216 E66.32687
G1 X55.285 Y145.215 E67.48227
G1 X55.284 Y78.234 E69.86358
G1 X55.202 Y77.15 E69.90223
G1 X55.173 Y76.743 E69.91673
G1 X54.924 Y75.67 E69.9559
G1 X54.834 Y75.272 E69.9704
G1 X54.278 Y73.866 E70.02415
G1 X53.518 Y72.56 E70.07787
G1 X52.569 Y71.383 E70.13163
G1 X51.455 Y70.362 E70.18535
G1 X50.201 Y69.52 E70.23905
G1 X48.884 Y68.899 E70.29082
G1 X48.685 Y68.77 E70.29925
G1 X48.597 Y68.658 E70.30431
G1 X48.542 Y68.461 E70.31158
G1 X48.515 Y67.85 E70.33333
G1 X48.392 Y67.333 E70.35222
G1 X48.033 Y66.74 E70.37686
G1 X47.64 Y66.382 E70.39576
G1 X47.018 Y66.096 E70.4201
G1 X46.528 Y66.031 E70.43768
G1 X40.285 Y66.03 E70.65963
G1 X40.284 Y60.204 E70.86675
G1 X40.284 Y59.784 E70.88168
G1 X40.704 Y59.784 E70.89135
G1 X151.554 Y59.784 E74.83228
G1 X192.715 Y59.785 E76.29563
G1 X192.715 Y68.215 E76.59534
G1 X187.735 Y68.216 E76.77238
G1 X186.707 Y68.289 E76.80902
G1 X186.285 Y68.321 E76.82407
G1 X185.261 Y68.546 E76.86134
G1 X184.85 Y68.643 E76.87636
G1 X183.87 Y69.01 E76.91356
G1 X183.479 Y69.17 E76.92858
G1 X182.558 Y69.673 E76.96589
G1 X182.198 Y69.894 E76.98091
G1 X181.359 Y70.521 E77.01814
G1 X181.038 Y70.797 E77.03319
G1 X180.298 Y71.537 E77.0704
G1 X180.022 Y71.858 E77.08545
G1 X179.395 Y72.697 E77.12269
G1 X179.174 Y73.057 E77.13771
G1 X178.672 Y73.977 E77.17497
G1 X178.509 Y74.368 E77.19003
G1 X178.145 Y75.349 E77.22723
G1 X178.045 Y75.76 E77.24226
G1 X177.823 Y76.783 E77.27948
G1 X177.788 Y77.205 E77.29454
G1 X177.716 Y78.235 E77.33124
G1 X177.716 Y127.342 E79.07709
G1 X177.715 Y145.215 E79.71251
G1 X145.216 Y145.216 E80.86792
M204 S625
M205 X30 Y30
G0 F6000 X145.216 Y145.616
G0 X144.292 Y145.615
G0 X144.276 Y145.615
G0 X142.706 Y142.706
M204 S500
M205 X25 Y25
;TYPE:SKIN
G1 F1200 X142.705 Y152.705 E81.2234
G1 X90.295 Y152.705 E83.08668
G1 X90.294 Y142.706 E83.44216
G1 X57.795 Y142.705 E84.59756
G1 X57.794 Y78.14 E86.89298
G1 X57.662 Y76.364 E86.95629
G1 X57.368 Y75.102 E87.00236
G1 X57.24 Y74.53 E87.0232
G1 X56.543 Y72.767 E87.0906
G1 X55.592 Y71.132 E87.15784
G1 X54.404 Y69.66 E87.22509
G1 X53.011 Y68.384 E87.29225
G1 X51.444 Y67.33 E87.35939
G1 X50.912 Y67.079 E87.3803
G1 X50.743 Y66.371 E87.40618
G1 X49.993 Y65.129 E87.45776
G1 X49.042 Y64.264 E87.50347
G1 X47.723 Y63.658 E87.55507
G1 X46.695 Y63.521 E87.59194
G1 X42.795 Y63.52 E87.7306
G1 X42.794 Y62.294 E87.77418
G1 X151.554 Y62.294 E91.64081
G1 X190.205 Y62.295 E93.01493
G1 X190.205 Y65.705 E93.13616
G1 X187.646 Y65.706 E93.22714
G1 X186.522 Y65.785 E93.2672
G1 X185.919 Y65.832 E93.2887
G1 X184.703 Y66.099 E93.33296
G1 X184.118 Y66.237 E93.35433
G1 X182.956 Y66.673 E93.39846
G1 X182.4 Y66.899 E93.41979
G1 X181.299 Y67.5 E93.46439
G1 X180.788 Y67.814 E93.48571
G1 X179.787 Y68.561 E93.53012
G1 X179.329 Y68.956 E93.55162
G1 X178.457 Y69.828 E93.59546
G1 X178.062 Y70.286 E93.61696
G1 X177.315 Y71.287 E93.66137
G1 X177.001 Y71.8 E93.68275
G1 X176.407 Y72.889 E93.72685
G1 X176.173 Y73.447 E93.74836
G1 X175.74 Y74.614 E93.79262
G1 X175.598 Y75.198 E93.81398
G1 X175.335 Y76.412 E93.85814
G1 X175.284 Y77.014 E93.87962
G1 X175.206 Y78.149 E93.92007
G1 X175.206 Y127.342 E95.66898
G1 X175.205 Y142.705 E96.21516
G1 X142.706 Y142.706 E97.37056
M204 S625
M205 X30 Y30
G0 F6000 X153.206 Y139.294
M204 S500
M205 X25 Y25
G1 F1200 X169.795 Y139.295 E97.96034
G1 X169.795 Y122.805 E98.54659
G1 X169.637 Y121.622 E98.58902
G1 X169.107 Y120.339 E98.63837
G1 X168.261 Y119.239 E98.68771
G1 X167.161 Y118.393 E98.73704
G1 X165.875 Y117.863 E98.78649
G1 X164.692 Y117.706 E98.82892
G1 X158.307 Y117.705 E99.05592
